!!!!SEGMENT: pl-sa--70-a-ii-10--011_pergolesi-giovanni-battista--stabat-mater-inflammatus.krn
!!!cenid: 17xx:653
!!!COM: Pergolesi, Giovanni Battista
!!!COM-rism: pe30002483
!!!CDT: 1710/01/04-1736/03
!!!CNT: Italian
!!!OTL: Stabat Mater – Inflammatus
!!!PDT:
!!!AGN: Sacred
!!!SMS-siglum: PL-SA
!!!SMS-shelfmark: 70/A II 10
!!!NIFC-rismID: 1001030091
!!!URL-scan: http://bc.bdsandomierz.pl/dlibra/publication/1341/edition/1309/content
!!!ONB-nifc: UWAGA: części Stabat Mater: Stabat Mater, Cuius animam, O quam tristis, Quae moerebat, Quist est homo+Pro peccatis, Vidit suum, Eja mater, Fac ut ardeat, Sancta Mater, Fac ut portem, Inflammatus, Quando corpus+Amen
!!!SMS-variant:
!!!SMS-altvar:
**kern	**fba	**dynam	**kern	**dynam	**kern	**kern	**dynam	**kern	**text	**kern	**text
*part6	*	*part6	*part5	*part5	*part4	*part3	*part3	*part2	*part2	*part1	*part1
*staff6	*	*	*staff5	*	*staff4	*staff3	*	*staff2	*staff2	*staff1	*staff1
*I"Organo	*	*	*I"alto Viola	*	*I"Violino 2do	*I"Violino 1mo	*	*I"alto	*	*I"Canto	*
*I'org	*	*	*I'a-vla	*	*I'vl 2	*I'vl 1	*	*I'A	*	*I'S	*
*clefF4	*	*	*clefC3	*	*clefG2	*clefG2	*	*clefC2	*	*clefC1	*
*k[b-e-]	*	*	*k[b-e-]	*	*k[b-e-]	*k[b-e-]	*	*k[b-e-]	*	*k[b-e-]	*
*M4/4	*	*	*M4/4	*	*M4/4	*M4/4	*	*M4/4	*	*M4/4	*
*met(c)	*	*	*met(c)	*	*met(c)	*met(c)	*	*met(c)	*	*met(c)	*
=1	=1	=1	=1	=1	=1	=1	=1	=1	=1	=1	=1
!	!	!	!LO:TX:a:t=P:problem:znaki przykluczowe w źródle: e-, B-	!	!LO:TX:a:t=P:problem:znaki przykluczowe w źródle: ee-, b-	!LO:TX:a:t=P:problem:znaki przykluczowe w źródle: ee-, b-	!	!LO:TX:a:t=P:problem:znaki przykluczowe w źródle: b-, e-	!	!	!
!LO:TX:a:t=P:problem:kolejność znaków w źródle: E-, BB-	!	!	!	!	!	!	!	!LO:N:vis=00	!	!LO:TX:a:t=P:problem:w źródle trzy znaki przykluczowe: ee-, b-, a-	!
!LO:TX:b:i:t=Inflamatus	!	!	!LO:TX:b:i:t=Inflamatus	!	!LO:TX:i:a:t=In Flamantus	!LO:TX:b:i:t=Inflamatus	!	!	!	!LO:N:vis=00	!
4BB-/	.	.	2r	.	8ff\	(>8ff\	.	00r	.	00r	.
.	.	.	.	.	4ff\	4ff\	.	.	.	.	.
4BB-/	.	.	.	.	.	.	.	.	.	.	.
.	.	.	.	.	8ee-\	8ee-\)	.	.	.	.	.
4BB-/	.	.	8f\	.	8dd\	(>8dd\	.	.	.	.	.
.	.	.	4f\	.	4dd\	4dd\	.	.	.	.	.
4BB-/	.	.	.	.	.	.	.	.	.	.	.
.	.	.	8e-\	.	8cc\	8cc\)	.	.	.	.	.
=2	=2	=2	=2	=2	=2	=2	=2	=2	=2	=2	=2
!LO:TX:a:t=P:problem:mixed beam	!	!	!	!	!	!	!	!	!	!	!
8BB-/L	.	.	8d\	.	8.b-\L	8.b-/L	.	.	.	.	.
8B-\	.	.	4b-\	.	.	.	.	.	.	.	.
.	.	.	.	.	32a\LL	32a/LL	.	.	.	.	.
.	.	.	.	.	32b-\JJJ	32b-/JJJ	.	.	.	.	.
8E-\	6 5	.	.	.	8.cc\L	8.cc\L	.	.	.	.	.
8F\J	.	.	8a\	.	.	.	.	.	.	.	.
.	.	.	.	.	32b-\LL	32b-\LL	.	.	.	.	.
.	.	.	.	.	32cc\JJJ	32cc\JJJ	.	.	.	.	.
!LO:TX:a:t=P:problem:mixed beam	!	!	!	!	!	!	!	!	!	!	!
8BB-/L	.	.	8b-\L	.	16dd\LL	16dd\LL	.	.	.	.	.
.	.	.	.	.	16cc\J	16cc\J	.	.	.	.	.
8G\J	.	.	8g\J	.	8b-\J	8b-\J	.	.	.	.	.
16F\LL	.	.	16f\LL	.	4r	4r	.	.	.	.	.
16E-\	.	.	16e-\	.	.	.	.	.	.	.	.
16D\	.	.	16d\	.	.	.	.	.	.	.	.
16C\JJ	.	.	16c\JJ	.	.	.	.	.	.	.	.
!LO:LB:g=original	!	!	!	!	!	!	!	!	!	!	!
=3	=3	=3	=3	=3	=3	=3	=3	=3	=3	=3	=3
4BB-/	.	.	4B-/	.	8ff\	(>8ff\	.	.	.	.	.
.	.	.	.	.	4ff\	4ff\	.	.	.	.	.
4BB-/	.	.	4r	.	.	.	.	.	.	.	.
.	.	.	.	.	8ee-\	8ee-\)	.	.	.	.	.
4BB-/	.	.	8f\	.	8dd\	(>8dd\	.	.	.	.	.
.	.	.	4f\	.	4dd\	4dd\	.	.	.	.	.
4BB-/	.	.	.	.	.	.	.	.	.	.	.
.	.	.	8e-\	.	8cc\	8cc\)	.	.	.	.	.
=4	=4	=4	=4	=4	=4	=4	=4	=4	=4	=4	=4
!LO:TX:a:t=P:problem:mixed beam	!	!	!	!	!	!	!	!	!	!	!
8BB-/L	.	.	8d\	.	(>16b-\LL	(>16b-\LL	.	.	.	.	.
.	.	.	.	.	16a\J	16a\J	.	.	.	.	.
8B-\	.	.	4b-\	.	8b-\J)	8b-\J)	.	.	.	.	.
8E-\	6 5	.	.	.	(>16cc\LL	(>16cc\LL	.	.	.	.	.
.	.	.	.	.	16b-\J	16b-\J	.	.	.	.	.
8F\J	.	.	8a\	.	8cc\J)	8cc\J)	.	.	.	.	.
8BB-/L	.	.	4b-\	.	16dd\LL	(>16dd\LL	.	.	.	.	.
.	.	.	.	.	16cc\J	16cc\J	.	.	.	.	.
8C/	.	.	.	.	8b-\J	8b-\J)	.	.	.	.	.
8D/	.	.	4B-/	.	8rg	8rg	.	.	.	.	.
8BB-/J	.	.	.	.	8ff\	8ff\	.	.	.	.	.
=5	=5	=5	=5	=5	=5	=5	=5	=5	=5	=5	=5
!	!	!	!	!	!	!	!	!LO:N:vis=00	!	!LO:N:vis=00	!
8E-\L	.	.	8g\L	.	8gg\	8gg\	.	00r	.	00r	.
8D\	.	.	8f\J	.	4bb-\	4bb-\	.	.	.	.	.
!LO:TX:a:t=P:problem:oznaczenie bc nieczytelne w tym takcie	!	!	!	!	!	!	!	!	!	!	!
8C\	7 4	.	4e-\	.	.	.	.	.	.	.	.
8F\J	7 #	.	.	.	8aa\	8aa\	.	.	.	.	.
!	!	!	!	!	!LO:TX:a:t=P:problem:mixed beam	!LO:TX:a:t=P:problem:mixed beam	!	!	!	!	!
8BB-/L	.	.	8d\L	.	8bb-\L	8bb-\L	.	.	.	.	.
8C/	.	.	8e-\	.	8b-/J	8b-/J	.	.	.	.	.
8D/	.	.	8f\	.	8r	8r	.	.	.	.	.
8BB-/J	.	.	8d\J	.	8ff\	8ff\	.	.	.	.	.
=6	=6	=6	=6	=6	=6	=6	=6	=6	=6	=6	=6
8E-\L	.	.	8g\L	.	8gg\	8gg\	.	.	.	.	.
8D\	.	.	8f\J	.	4bb-\	4bb-\	.	.	.	.	.
8C\	X 7	.	4e-\	.	.	.	.	.	.	.	.
8F\J	X 7	.	.	.	8aa\	8aa\	.	.	.	.	.
!	!	!	!	!	!LO:TX:a:t=P:problem:mixed beam	!LO:TX:a:t=P:problem:mixed beam	!	!	!	!	!
4B-\	.	.	8d\	.	8bb-\L	8bb-\L	.	.	.	.	.
.	.	.	4b-\	.	8b-/J	8b-/J	.	.	.	.	.
8G\L	X 6	.	.	.	4ee-\	4ee-\	.	.	.	.	.
8A\J	6 5	.	8cc\	.	.	.	.	.	.	.	.
!	!	!	!	!	!LO:LB:g=original	!	!	!	!	!	!
=7	=7	=7	=7	=7	=7	=7	=7	=7	=7	=7	=7
8B-\L	.	.	8f\	.	8dd\L	8dd\L	.	.	.	.	.
8D\	.	.	4b-\	.	16cc\L	16cc\L	.	.	.	.	.
.	.	.	.	.	16b-\JJ	16b-\JJ	.	.	.	.	.
8E-\	6 5	.	.	.	4cc\	4ccT>\	.	.	.	.	.
8F\J	.	.	8an\	.	.	.	.	.	.	.	.
!	!	!	!LO:TX:a:t=P:problem:mixed beam	!	!	!	!	!	!	!	!
8BB-/L	.	.	8b-\L	.	4b-\	4b-\	.	.	.	.	.
8BB-/	.	.	8b-\	.	.	.	.	.	.	.	.
8D/	X 6	.	8d/	.	8ff\L	8ff\L	.	.	.	.	.
8D/J	.	.	8d/J	.	8b-\J	8b-\J	.	.	.	.	.
!	!	!	!LO:LB:g=original	!	!	!	!	!	!	!	!
=8	=8	=8	=8	=8	=8	=8	=8	=8	=8	=8	=8
8E-\L	X 6	.	8e-\L	.	8cc\L	8cc\L	.	.	.	.	.
8F\	.	.	8f\	.	8dd\J	8dd\J	.	.	.	.	.
8G\	X 6	.	8g\	.	4ee-\	4ee-T>\	.	.	.	.	.
8A\J	6 5	.	8a\J	.	.	.	.	.	.	.	.
!LO:TX:a:t=P:problem:mixed beam	!	!	!	!	!	!	!	!	!	!	!
8B-\L	.	.	8b-\L	.	4dd\	4dd\	.	.	.	.	.
8B-\	.	.	8b-\	.	.	.	.	.	.	.	.
!	!	!	!	!	!	!LO:LB:g=original	!	!	!	!	!
8D/	X 6	.	8d\	.	8ff\L	8ff\L	.	.	.	.	.
8D/J	.	.	8d\J	.	8b-\J	8b-\J	.	.	.	.	.
=9	=9	=9	=9	=9	=9	=9	=9	=9	=9	=9	=9
!	!	!	!	!	!	!	!	!LO:N:vis=00	!	!LO:N:vis=00	!
8E-\L	X 6	.	8e-\L	.	8cc\L	8cc\L	.	00r	.	00r	.
8F\	.	.	8f\	.	8dd\J	8dd\J	.	.	.	.	.
8G\	X 6	.	8g\	.	4ee-\	4ee-\	.	.	.	.	.
8A\J	6 5	.	8a\J	.	.	.	.	.	.	.	.
8B-\L	.	.	8b-\L	.	8dd\L	8dd\L	.	.	.	.	.
8f\	.	.	8ff\	.	16bb-\L	16bb-\L	.	.	.	.	.
.	.	.	.	.	16aa\JJ	16aa\JJ	.	.	.	.	.
8d\	.	.	8dd\	.	8bb-\L	8bb-\L	.	.	.	.	.
!LO:TX:a:t=P:problem:oznaczenie bc nieczytelne	!	!	!	!	!	!	!	!	!	!	!
8c\J	X 5	.	8cc\J	.	8bb-\J	8bb-\J	.	.	.	.	.
=10	=10	=10	=10	=10	=10	=10	=10	=10	=10	=10	=10
!	!	!	!	!	!LO:TX:a:t=P:problem:mixed beam	!LO:TX:a:t=P:problem:mixed beam	!	!	!	!	!
8B-\L	.	.	8b-\L	.	8b-/L	8b-/L	.	.	.	.	.
8d\	.	.	8dd\	.	16bb-\L	16bb-\L	.	.	.	.	.
.	.	.	.	.	16aa\JJ	16aa\JJ	.	.	.	.	.
8B-\	.	.	8b-\	.	8bb-\L	8bb-\L	.	.	.	.	.
8A\J	.	.	8a\J	.	8bb-\J	8bb-\J	.	.	.	.	.
!	!	!	!	!	!LO:TX:a:t=P:problem:mixed beam	!LO:TX:a:t=P:problem:mixed beam	!	!	!	!	!
8G\L	.	.	8g\L	.	8b-/L	8b-/L	.	.	.	.	.
8B-\	.	.	8b-\	.	16bb-\L	16bb-\L	.	.	.	.	.
.	.	.	.	.	16aa\JJ	16aa\JJ	.	.	.	.	.
8G\	.	.	8g\	.	8bb-\L	8bb-\L	.	.	.	.	.
8F\J	.	.	8f\J	.	8bb-\J	8bb-\J	.	.	.	.	.
=11	=11	=11	=11	=11	=11	=11	=11	=11	=11	=11	=11
8E-\L	6 5	.	8e-\L	.	8b-\L	8b-\L	.	.	.	.	.
8E-\	.	.	8e-\	.	8ee-\J	8ee-\J	.	.	.	.	.
8F\	6 4	.	8f\	.	16dd\LL	16dd\LL	.	.	.	.	.
.	.	.	.	.	16b-\	16b-\	.	.	.	.	.
8F\J	X 4	.	8f\J	.	16cc\	16cc\	.	.	.	.	.
.	.	.	.	.	16a\JJ	16a\JJ	.	.	.	.	.
!	!	!	!	!	!LO:TX:a:t=P:problem:mixed beam	!LO:TX:a:t=P:problem:mixed beam	!	!	!	!	!
8BB-\L	.	.	8B-\L	.	8b-/L	8b-/L	.	.	.	.	.
8F\	.	.	8f\	.	16bb-\L	16bb-\L	.	.	.	.	.
.	.	.	.	.	16aa\JJ	16aa\JJ	.	.	.	.	.
8D\	.	.	8d\	.	8bb-\L	8bb-\L	.	.	.	.	.
8BB-\J	.	.	8c\J	.	8bb-\J	8bb-\J	.	.	.	.	.
!LO:LB:g=original	!	!	!	!	!	!	!	!	!	!	!
=12	=12	=12	=12	=12	=12	=12	=12	=12	=12	=12	=12
!	!	!	!	!	!LO:TX:a:t=P:problem:mixed beam	!LO:TX:a:t=P:problem:mixed beam	!	!	!	!	!
8BB-/L	.	.	8B-/L	.	8b-/L	8b-/L	.	.	.	.	.
8D/	.	.	8d/	.	16bb-\L	16bb-\L	.	.	.	.	.
.	.	.	.	.	16aa\JJ	16aa\JJ	.	.	.	.	.
8BB-/	.	.	8B-/	.	8bb-\L	8bb-\L	.	.	.	.	.
8AA/J	.	.	8A/J	.	8bb-\J	8bb-\J	.	.	.	.	.
!	!	!	!	!	!LO:TX:a:t=P:problem:mixed beam	!LO:TX:a:t=P:problem:mixed beam	!	!	!	!	!
8GG/L	.	.	8G/L	.	8b-/L	8b-/L	.	.	.	.	.
8BB-/	.	.	8B-/	.	16bb-\L	16bb-\L	.	.	.	.	.
.	.	.	.	.	16aa\JJ	16aa\JJ	.	.	.	.	.
8GG/	.	.	8G/	.	8bb-\L	8bb-\L	.	.	.	.	.
8FF/J	.	.	8F/J	.	8bb-\J	8bb-\J	.	.	.	.	.
=13	=13	=13	=13	=13	=13	=13	=13	=13	=13	=13	=13
!	!	!	!	!	!LO:TX:a:t=P:problem:mixed beam	!LO:TX:a:t=P:problem:mixed beam	!	!LO:N:vis=00	!	!	!
8EE-/L	6 5	.	8E-/L	.	8g/L	8g/L	.	00r	.	1r	.
8EE-/	6 4	.	8E-/	.	8ee-\J	8ee-\J	.	.	.	.	.
!LO:TX:a:t=P:problem:oznaczenie bc nieczytelne	!	!	!	!	!	!	!	!	!	!	!
8FF/	3 7	.	8F/	.	16dd\LL	16dd\LL	.	.	.	.	.
.	.	.	.	.	16b-\	16b-\	.	.	.	.	.
8FF/J	.	.	8F/J	.	16cc\	16cc\	.	.	.	.	.
.	.	.	.	.	16a\JJ	16a\JJ	.	.	.	.	.
4BB-/	.	.	4B-/	.	8b-/L	8b-/L	.	.	.	.	.
.	.	.	.	.	8f/J	8f/J	.	.	.	.	.
4r	.	.	4r	.	4B-/	4B-/	.	.	.	.	.
=14	=14	=14	=14	=14	=14	=14	=14	=14	=14	=14	=14
!	!	!LO:DY:b	!	!LO:DY:b	!	!LO:TX:a:t=P:problem:znak końca repetycji	!LO:DY:b	!	!	!	!
4BB-/	.	p	4B-/	p	2rg	8ff\	p	.	.	8ff\	In-
!	!	!	!	!	!	!	!	!	!	!LO:SIC:s=-flam-	!
.	.	.	.	.	.	(>4ff\	.	.	.	4ff\	-fla-
4BB-/	.	.	4B-/	.	.	.	.	.	.	.	.
.	.	.	.	.	.	8ee-\)	.	.	.	8ee-\	.
4BB-/	.	.	4B-/	.	8f/	(>8dd\	.	.	.	8dd\	.
.	.	.	.	.	4f/	4dd\	.	.	.	4dd\	-ma-
4BB-/	.	.	4B-/	.	.	.	.	.	.	.	.
.	.	.	.	.	8e-/	8cc\)	.	.	.	8cc\	-tus
=15	=15	=15	=15	=15	=15	=15	=15	=15	=15	=15	=15
!LO:TX:a:t=P:problem:mixed beam	!	!	!LO:TX:a:t=P:problem:mixed beam	!	!	!	!	!	!	!	!
8BB-/L	.	.	8B-/L	.	8d/	4b-\	.	.	.	4b-\	et
8B-\	.	.	8b-\	.	4b-/	.	.	.	.	.	.
8E-\	.	.	8e-\	.	.	4cc\	.	.	.	4cc\	ac-
8F\J	.	.	8f\J	.	8a/	.	.	.	.	.	.
!LO:TX:a:t=P:problem:mixed beam	!	!	!LO:TX:a:t=P:problem:mixed beam	!	!	!	!	!	!	!	!
8BB-/L	.	.	8B-/L	.	8b-/L	16dd\LL	.	.	.	16dd\LL	-cen-
.	.	.	.	.	.	16cc\J	.	.	.	16cc\JJ	.
8G\J	.	.	8g\J	.	8g/J	8b-\J	.	.	.	8b-\	-sus
!	!	!	!LO:LB:g=original	!	!	!	!	!	!	!	!
16F\LL	.	.	16f\LL	.	16f/LL	4r	.	.	.	4r	.
16E-\	.	.	16e-\	.	16e-/	.	.	.	.	.	.
16D\	.	.	16d\	.	16d/	.	.	.	.	.	.
16C\JJ	.	.	16c\JJ	.	16c/JJ	.	.	.	.	.	.
!	!	!	!	!	!	!LO:TX:a:t=P:problem:znak końca repetycji	!	!	!	!	!
=16	=16	=16	=16	=16	=16	=16	=16	=16	=16	=16	=16
!	!	!	!	!	!	!	!LO:DY:b	!	!	!	!
4BB-/	.	.	4B-/	.	4B-/	8ff\	p	.	.	8ff\	per
.	.	.	.	.	.	(>4ff\	.	.	.	4ff\	te
4BB-/	.	.	4B-/	.	4r	.	.	.	.	.	.
.	.	.	.	.	.	8ee-\)	.	.	.	8ee-\	vir-
4BB-/	.	.	4B-/	.	8f/	(>8dd\	.	.	.	8dd\	.
.	.	.	.	.	4f/	4dd\	.	.	.	4dd\	-go
4BB-/	.	.	4B-/	.	.	.	.	.	.	.	.
.	.	.	.	.	8e-/	8cc\)	.	.	.	8cc\	.
=17	=17	=17	=17	=17	=17	=17	=17	=17	=17	=17	=17
!LO:TX:a:t=P:problem:mixed beam	!	!	!LO:TX:a:t=P:problem:mixed beam	!	!	!	!	!LO:N:vis=00	!	!	!
8BB-/L	.	.	8B-/L	.	8d/	4b-\	.	00r	.	4b-\	sim
8B-\	.	.	8b-\	.	4b-\	.	.	.	.	.	.
!	!	!	!	!	!	!	!	!	!	!LO:SIC:s=de-	!
8E-\	X 5	.	8e-\	.	.	4cc\	.	.	.	4cc\	.
8F\J	.	.	8f\J	.	8a\	.	.	.	.	.	.
!	!	!	!	!	!LO:LB:g=original	!	!	!	!	!	!
!LO:TX:a:t=P:problem:mixed beam	!	!	!LO:TX:a:t=P:problem:mixed beam	!	!LO:TX:a:t=P:problem:mixed beam	!	!	!	!	!	!
8BB-/L	.	.	8B-/L	.	8b-\L	16dd\LL	.	.	.	16dd\LL	di-
.	.	.	.	.	.	16cc\J	.	.	.	16cc\JJ	.
8C/	.	.	8c/	.	16B-/L	8b-\J	.	.	.	8b-\	-fen-
.	.	.	.	.	16A/JJ	.	.	.	.	.	.
!	!	!	!	!	!LO:TX:a:t=P:problem:mixed beam	!	!	!	!	!	!
8D/	.	.	8d/	.	8B-/L	4r	.	.	.	8r	.
8B-\J	.	.	8b-\J	.	8b-\J	.	.	.	.	8ff\	-suſ
=18	=18	=18	=18	=18	=18	=18	=18	=18	=18	=18	=18
8A\L	.	.	8a\L	.	4cc\	8r	.	.	.	4cc\	in
8F\	.	.	8f\	.	.	4ff\	.	.	.	.	.
8G\	X 7	.	8g\	.	4b-\	.	.	.	.	4b-\	di-
8C\J	X 7	.	8c\J	.	.	8een\	.	.	.	.	.
!	!	!	!LO:TX:a:t=P:problem:mixed beam	!	!	!LO:TX:a:t=P:problem:mixed beam	!	!	!	!	!
8F\L	.	.	8f\L	.	8a/L	8ff\L	.	.	.	4a\	-e
8G\	.	.	8g\	.	16f/L	16f/L	.	.	.	.	.
.	.	.	.	.	16en/JJ	16en/JJ	.	.	.	.	.
!	!	!	!	!	!LO:TX:a:t=P:problem:mixed beam	!	!	!	!	!	!
8A\	.	.	8a\	.	8f/L	8f/L	.	.	.	8r	.
8B-\J	.	.	8A/J	.	8dd\J	8f/J	.	.	.	8ff\	Iu-
!	!	!	!	!	!	!LO:LB:g=original	!	!	!	!LO:LB:g=original	!
=19	=19	=19	=19	=19	=19	=19	=19	=19	=19	=19	=19
8A\L	.	.	8B-\L	.	4cc\	8r	.	.	.	4cc\	-di-
8F\	.	.	8c\	.	.	4ff\	.	.	.	.	.
8G\	.	.	8d\	.	4b-\	.	.	.	.	4b-\	-ci-
8C\J	.	.	8en\J	.	.	8een\	.	.	.	.	.
!LO:TX:a:t=P:problem:mixed beam	!	!	!LO:TX:a:t=P:problem:mixed beam	!	!	!	!	!	!	!	!
8F\L	.	.	8f\L	.	4a/	4ff\	.	.	.	8a\	-i
8G\	.	.	8g\	.	.	.	.	.	.	4cc\	In-
8A\	.	.	8a\	.	8ccc\L	8ccc\L	.	.	.	.	.
!	!	!	!	!	!	!	!	!	!	!LO:SIC:s=-flam-	!
8AA/J	X 6	.	8A/J	.	8ff\J	8ff\J	.	.	.	8f/	-fla-
!LO:PB:g=original	!	!	!	!	!	!	!	!	!	!	!
=20	=20	=20	=20	=20	=20	=20	=20	=20	=20	=20	=20
!LO:TX:a:t=P:problem:powinien byc powtórzony ten takt, bo inaczej się nie zgadza w pionie	!	!	!LO:TX:a:t=P:problem:powinien byc poowtórzony ten takt dwa razy, bo inaczej sie nie zgadza w pionie	!	!LO:TX:a:t=P:problem:znak początku repetycji	!LO:TX:a:t=P:problem:znak początku repetycji	!	!	!	!	!
8BB-\L	X 6	.	8B-\L	.	8gg\L	8gg\L	.	.	.	8g\L	-ma-
8C\	.	.	8c\	.	8aa\J	8aa\J	.	.	.	8a\J	.
8D\	.	.	8d\	.	4bb-\	4bb-\	.	.	.	4b-\	-tus
8En\J	.	.	8en\J	.	.	.	.	.	.	.	.
!LO:TX:a:t=P:problem:mixed beam	!	!	!LO:TX:a:t=P:problem:mixed beam	!	!	!	!	!	!	!	!
8F\L	.	.	8f\L	.	4aa\	4aa\	.	.	.	4a\	et
8G\	.	.	8g\	.	.	.	.	.	.	.	.
8A\	.	.	8a\	.	8ccc\L	8ccc\L	.	.	.	8cc\	ac-
8AA/J	.	.	8A/J	.	8ff\J	8ff\J	.	.	.	8f/	.
!	!	!	!	!	!LO:TX:a:t=P:problem:znak końca repetycji	!LO:TX:a:t=P:problem:znak końca repetycji	!	!	!	!	!
=21	=21	=21	=21	=21	=21	=21	=21	=21	=21	=21	=21
!	!	!	!	!	!	!	!	!LO:N:vis=00	!	!	!
1ryy	.	.	1ryy	.	8gg\L	8gg\L	.	00r	.	8g\L	-cen-
.	.	.	.	.	8aa\J	8aa\J	.	.	.	8a\J	.
.	.	.	.	.	4bb-\	4bb-\	.	.	.	4b-\	-sus
.	.	.	.	.	4aa\	4aa\	.	.	.	4a\	.
.	.	.	.	.	8ccc\L	8ccc\L	.	.	.	8cc\	per
.	.	.	.	.	8ff\J	8ff\J	.	.	.	8f/	te
=22	=22	=22	=22	=22	=22	=22	=22	=22	=22	=22	=22
8BB-\L	X n	.	1ryy	.	8gg\L	8gg\L	.	.	.	8g\L	ac-
8C\	X 5	.	.	.	8aa\J	8aa\J	.	.	.	8a\J	.
8D\	.	.	.	.	4bb-\	4bb-\	.	.	.	4b-\	-cen-
8En\J	6 5	.	.	.	.	.	.	.	.	.	.
!LO:TX:a:t=P:problem:mixed beam	!	!	!	!	!	!	!	!	!	!	!
8F\L	.	.	.	.	4aa\	4aa\	.	.	.	4a\	-suſ
8G\	.	.	.	.	.	.	.	.	.	.	.
8A\	.	.	.	.	8ccc\L	8ccc\L	.	.	.	8cc\	per
8AA/J	X 6	.	.	.	8ff\J	8ff\J	.	.	.	8f/	te
=23	=23	=23	=23	=23	=23	=23	=23	=23	=23	=23	=23
8BB-/L	X 6	.	8B-\L	.	8gg\L	8gg\L	.	.	.	8g\L	vir-
8C/	.	.	8c\	.	8aa\J	8aa\J	.	.	.	8a\J	.
8D/	X 6	.	8d\	.	4bb-\	4bb-T>\	.	.	.	4b-\	.
8En/J	6 5	.	8en\J	.	.	.	.	.	.	.	.
!LO:TX:a:t=P:problem:mixed beam	!	!	!LO:TX:a:t=P:problem:mixed beam	!	!	!	!	!	!	!	!
8F\L	.	.	8f\L	.	4aa\	4aa\	.	.	.	4a\	-go
8FF/J	.	.	8F/J	.	.	.	.	.	.	.	.
4F\	.	.	4F/	.	4r	4r	.	.	.	8r	.
.	.	.	.	.	.	.	.	.	.	8cc\	in
=24	=24	=24	=24	=24	=24	=24	=24	=24	=24	=24	=24
!	!	!	!	!	!LO:TX:a:t=P:problem:mixed beam	!LO:TX:a:t=P:problem:mixed beam	!	!	!	!	!
!	!	!	!	!	!	!	!	!	!	!LO:TX:a:t=P:problem:niejednoznaczny zapis wysokości nuty	!
8F\L	.	.	8f\L	.	8f/L	8f/L	.	.	.	1ff	di-
8c\	.	.	8cc\	.	16ff\L	16ff\L	.	.	.	.	.
.	.	.	.	.	16een\JJ	16een\JJ	.	.	.	.	.
8A\	.	.	8a\	.	8ff\L	8ff\L	.	.	.	.	.
8F\J	.	.	8g\J	.	8ff\J	8ff\J	.	.	.	.	.
!	!	!	!	!	!LO:TX:a:t=P:problem:mixed beam	!LO:TX:a:t=P:problem:mixed beam	!	!	!	!	!
8F\L	.	.	8f\L	.	8f/L	8f/L	.	.	.	.	.
8A\	.	.	8a\	.	16ff\L	16ff\L	.	.	.	.	.
.	.	.	.	.	16een\JJ	16ee\JJ	.	.	.	.	.
8F\	.	.	8f\	.	8ff\L	8ff\L	.	.	.	.	.
8En\J	.	.	8en\J	.	8ff\J	8ff\J	.	.	.	.	.
!	!	!	!LO:LB:g=original	!	!	!	!	!	!	!	!
=25	=25	=25	=25	=25	=25	=25	=25	=25	=25	=25	=25
*	*	*	*	*	*	*	*	*	*	*2\right	*
!	!	!	!	!	!LO:TX:a:t=P:problem:mixed beam	!LLO:TX:a:t=P:problem:mixed beam	!	!LO:N:vis=00	!	!LO:TX:a:t=P:problem:niejednoznaczny zapis wysokości nuty	!
8D\L	.	.	8d\L	.	8f/L	8f/L	.	00r	.	2ff\	.
8F\	.	.	8f\	.	16ff\L	16ff\L	.	.	.	.	.
.	.	.	.	.	16een\JJ	16een\JJ	.	.	.	.	.
8D\	.	.	8d\	.	8ff\L	8ff\L	.	.	.	.	.
!	!	!	!LO:TX:a:t=P:problem:przekreślona kreska taktowa	!	!	!	!	!	!	!	!
8C\J	.	.	8c\J	.	8ff\J	8ff\J	.	.	.	.	.
8BB-/L	.	.	8B-/L	.	8ff\L	8ff\L	.	.	.	8ff\L	.
8BB-/	.	.	8B-/	.	16een\L	16een\L	.	.	.	16een\L	.
.	.	.	.	.	16dd\JJ	16dd\JJ	.	.	.	16dd\JJ	.
8BB-/	6 5	.	8B-/	.	16cc\LL	16cc\LL	.	.	.	16cc\LL	-e
.	.	.	.	.	16b-\	16b-\	.	.	.	16b-\JJ	.
8BB-/J	.	.	8B-/J	.	16a\	16a\	.	.	.	16a\LL	Iu-
.	.	.	.	.	16g\JJ	16g\JJ	.	.	.	16g\JJ	.
!	!	!	!	!	!	!	!	!	!	!LO:LB:g=original	!
=26	=26	=26	=26	=26	=26	=26	=26	=26	=26	=26	=26
8C/L	X 4	.	8c\L	.	4f/	4f/	.	.	.	4f/	-di-
8C/	.	.	8c\	.	.	.	.	.	.	.	.
8C/	.	.	8c\	.	4g/	4g/	.	.	.	4g/	-ci-
8C/J	X n	.	8c\J	.	.	.	.	.	.	.	.
!	!	!	!	!	!LO:TX:a:t=P:problem:mixed beam	!LO:TX:a:t=P:problem:mixed beam	!	!	!	!	!
8F\L	.	.	8f\L	.	8f/L	8f/L	.	.	.	4f/	-i
8F\	.	.	8f\	.	16ff\L	16ff\L	.	.	.	.	.
.	.	.	.	.	16een\JJ	16een\JJ	.	.	.	.	.
8F\	.	.	8f\	.	8ff\L	8ff\L	.	.	.	4r	.
8F\J	.	.	8f\J	.	8ff\J	8ff\J	.	.	.	.	.
=27	=27	=27	=27	=27	=27	=27	=27	=27	=27	=27	=27
!	!	!	!	!	!	!	!	!	!	!LO:N:vis=00	!
8BBn/L	6 5	.	8Bn/L	.	8bn\L	8bn\L	.	.	.	00r	.
8BB/	.	.	8B/	.	16ff\L	16ff\L	.	.	.	.	.
.	.	.	.	.	16een\JJ	16een\JJ	.	.	.	.	.
8BB/	.	.	8B/	.	8ff\L	8ff\L	.	.	.	.	.
8BB/J	.	.	8B/J	.	8bn\J	8bn\J	.	.	.	.	.
!	!	!	!	!	!LO:LB:g=original	!	!	!	!	!	!
!LO:TX:a:t=P:problem:oznaczenie bc nieczytelne	!	!	!	!	!	!	!	!	!	!	!
8C/L	X n	.	8c/L	.	8cc\L	8cc\L	.	.	.	.	.
8C/	.	.	8c/	.	16gg\L	16gg\L	.	.	.	.	.
.	.	.	.	.	16ff\JJ	16ff\JJ	.	.	.	.	.
8C/	.	.	8c/	.	8gg\L	8gg\L	.	.	.	.	.
8C/J	.	.	8c/J	.	8gg\J	8gg\J	.	.	.	.	.
!LO:LB:g=original	!	!	!	!	!	!	!	!	!	!	!
=28	=28	=28	=28	=28	=28	=28	=28	=28	=28	=28	=28
8BB-X/L	4 2	.	8B-X/L	.	8b-X\L	8b-\L	.	.	.	.	.
8BB-/	.	.	8B-/	.	16gg\L	16gg\L	.	.	.	.	.
.	.	.	.	.	16ff\JJ	16ff\JJ	.	.	.	.	.
8BB-/	.	.	8B-/	.	8gg\L	8gg\L	.	.	.	.	.
8BB-/J	.	.	8B-/J	.	8b-\J	8b-\J	.	.	.	.	.
8AA/L	X 6	.	8A/L	.	8a\L	8a\L	.	.	.	.	.
8AA/	.	.	8A/	.	16ff\L	16ff\L	.	.	.	.	.
!	!	!	!	!	!	!LO:SIC:s=16een	!	!	!	!	!
.	.	.	.	.	16een\JJ	16ee-\JJ	.	.	.	.	.
!	!	!	!	!	!LO:TX:a:t=P:problem:mixed beam	!LO:TX:a:t=P:problem:mixed beam	!	!	!	!	!
8AA/	.	.	8A/	.	8ff\L	8ff\L	.	.	.	.	.
8AA/J	.	.	8A/J	.	8f/J	8f/J	.	.	.	.	.
!	!	!	!	!	!	!LO:LB:g=original	!	!	!	!	!
=29	=29	=29	=29	=29	=29	=29	=29	=29	=29	=29	=29
8BB-/L	6 5	.	8B-/L	.	8g/L	8g/L	.	1r	.	.	.
8BB-/	.	.	8B-/	.	8a/J	8a/J	.	.	.	.	.
8C/	X n	.	8c/	.	4en/	4en/	.	.	.	.	.
8C/J	.	.	8c/J	.	.	.	.	.	.	.	.
4FF/	.	.	4F/	.	8f/L	8f/L	.	.	.	.	.
.	.	.	.	.	8c/J	8c/J	.	.	.	.	.
4r	.	.	4r	.	4A/	4A/	.	.	.	.	.
=30	=30	=30	=30	=30	=30	=30	=30	=30	=30	=30	=30
!	!	!	!	!	!	!	!LO:DY:b	!	!	!	!
4FF/	.	.	4F/	.	2r	8cc\	p	8ee-\	Fac	.	.
.	.	.	.	.	.	4cc\	.	4ee-\	me	.	.
4FF/	.	.	4F/	.	.	.	.	.	.	.	.
.	.	.	.	.	.	8b-\	.	8dd\	cru-	.	.
4FF/	.	.	4F/	.	8c/	8a/	.	8cc\	.	.	.
!	!	!	!	!	!	!	!	!LO:SIC:s=-ce	!	!	!
.	.	.	.	.	4c/	4a/	.	4cc\	-cem	.	.
4FF/	.	.	4F/	.	.	.	.	.	.	.	.
.	.	.	.	.	8B-/	8g/	.	8b-\	.	.	.
=31	=31	=31	=31	=31	=31	=31	=31	=31	=31	=31	=31
!LO:TX:a:t=P:problem:mixed beam	!	!	!LO:TX:a:t=P:problem:mixed beam	!	!	!	!	!	!	!	!
8FF/L	.	.	8F/L	.	8A/	4f/	.	4a\	cus-	1r	.
8F\	.	.	8f\	.	4f/	.	.	.	.	.	.
8BB-/	.	.	8B-\	.	.	4g/	.	4b-\	-to-	.	.
8C/J	X n	.	8c\J	.	8en/	.	.	.	.	.	.
!LO:TX:a:t=P:problem:mixed beam	!	!	!LO:TX:a:t=P:problem:mixed beam	!	!	!	!	!	!	!	!
8FF/L	.	.	8F/L	.	8f/L	16a/LL	.	16cc\LL	-di-	.	.
.	.	.	.	.	.	16g/J	.	16b-\JJ	.	.	.
!	!	!	!	!	!	!	!	!LO:SIC:s=-ri	!	!	!
8G\J	.	.	8g\J	.	8g/J	8f/J	.	8a\	-re	.	.
16F\LL	.	.	16f\LL	.	16f/LL	4r	.	4r	.	.	.
16E-\	.	.	16e-\	.	16e-X/	.	.	.	.	.	.
16D\	.	.	16d\	.	16d/	.	.	.	.	.	.
16C\JJ	.	.	16c\JJ	.	16c/JJ	.	.	.	.	.	.
=32	=32	=32	=32	=32	=32	=32	=32	=32	=32	=32	=32
!	!	!	!	!	!	!	!	!LO:TX:a:t=2	!	!	!
!	!	!	!	!	!	!	!LO:DY:b	!LO:N:vis=0	!	!	!
4BB-/	.	.	4B-/	.	4B-/	(>8ff\	p	0r	.	8ff\	Mor-
.	.	.	.	.	.	4ff\	.	.	.	4ff\	-te
4BB-/	.	.	4B-/	.	4r	.	.	.	.	.	.
.	.	.	.	.	.	8ee-\)	.	.	.	8ee-\	chri-
4BB-/	.	.	4B-/	.	8f/	(>8dd\	.	.	.	8dd\	.
.	.	.	.	.	4f/	4dd\	.	.	.	4dd\	-sti
4BB-/	.	.	4B-/	.	.	.	.	.	.	.	.
.	.	.	.	.	8e-/	8cc\)	.	.	.	8cc\	.
!	!	!	!LO:LB:g=original	!	!	!	!	!	!	!	!
=33	=33	=33	=33	=33	=33	=33	=33	=33	=33	=33	=33
!LO:TX:a:t=P:problem:mixed beam	!	!	!LO:TX:a:t=P:problem:mixed beam	!	!	!	!	!	!	!	!
8BB-/L	.	.	8B-/L	.	8d/	4b-T>\	.	.	.	4b-\	pr(a)e-
8B-\	.	.	8b-\	.	4b-\	.	.	.	.	.	.
8E-\	.	.	8e-\	.	.	4cc\	.	.	.	4cc\	-mu-
8F\J	.	.	8f\J	.	8a/	.	.	.	.	.	.
!	!	!	!	!	!LO:TX:a:t=P:problem:mixed beam	!	!	!	!	!	!
8BB-/L	.	.	8B-/L	.	8b-\L	16dd\LL	.	.	.	16dd\LL	-ni-
.	.	.	.	.	.	16cc\J	.	.	.	16cc\JJ	.
8C/	.	.	8c/	.	16B-/L	8b-\J	.	.	.	8b-\	-ri
.	.	.	.	.	16A/JJ	.	.	.	.	.	.
8D/	.	.	8d/	.	8B-/L	4r	.	.	.	4r	.
8C/J	.	.	8B-/J	.	8B-/J	.	.	.	.	.	.
=34	=34	=34	=34	=34	=34	=34	=34	=34	=34	=34	=34
!	!	!	!	!	!	!	!	!LO:SIC:s=Con-	!	!	!
8BB-/L	.	.	8B-/L	.	8dd\L	8ff\L	.	8f\	Cin-	8f/	Con-
8BB-/	.	.	8B-/	.	8ee-\J	8gg\J	.	8g\	-fo-	8g/	-fo-
!	!	!	!	!	!	!	!	!LO:SIC:s=4a-	!LO:SIC:s=-ve-	!	!
8BB-/	X -7	.	8B-/	.	4ff\	4aa-X\	.	4a\	-ue-	4a-X/	-ve-
8BB-/J	.	.	8B-/J	.	.	.	.	.	.	.	.
!	!	!	!	!	!LO:TX:a:t=P:problem:mixed beam	!LO:TX:a:t=P:problem:mixed beam	!	!	!	!	!
8E-\L	.	.	8e-\L	.	8ee-\L	8gg\L	.	4g\	-ri	4g/	-ri
8F\	.	.	8f\	.	16e-/L	16g/L	.	.	.	.	.
.	.	.	.	.	16d/JJ	16f/JJ	.	.	.	.	.
8E-\	.	.	8e-\	.	8e-/L	8g/L	.	4r	.	4r	.
8D\J	.	.	8d\J	.	8e-/J	8g/J	.	.	.	.	.
=35	=35	=35	=35	=35	=35	=35	=35	=35	=35	=35	=35
8C/L	X n	.	8c\L	.	8een\L	8gg\L	.	8gn\	Con-	8g\	Con-
8C/	.	.	8c\	.	8ff\J	8aan\J	.	8a\	-fo-	8an\	-fo-
!	!	!	!	!	!	!	!	!	!LO:SIC:s=-ve-	!	!
8C/	.	.	8c\	.	4gg\	4bb-\	.	4b-\	-ue-	4b-\	-ve-
8C/J	X 7	.	8c\J	.	.	.	.	.	.	.	.
!	!	!	!	!	!LO:TX:a:t=P:problem:mixed beam	!LO:TX:a:t=P:problem:mixed beam	!	!	!	!	!
8F\L	.	.	8f\L	.	8ff\L	8aan\L	.	4a\	-ri	4a\	-ri
8G\	.	.	8g\	.	16f/L	16a/L	.	.	.	.	.
.	.	.	.	.	16en/JJ	16g/JJ	.	.	.	.	.
8A\	.	.	8a\	.	8f/L	8a/L	.	4r	.	4r	.
8G\J	.	.	8g\J	.	8f/J	8a/J	.	.	.	.	.
!LO:LB:g=original	!	!	!	!	!	!	!	!LO:LB:g=original	!	!	!
=36	=36	=36	=36	=36	=36	=36	=36	=36	=36	=36	=36
*	*	*	*	*	*	*	*	*2\right	*	*	*
4F\	.	.	4f\	.	2rg	2r	.	4a\	Con-	1r	.
4r	.	.	4r	.	.	.	.	4a\	-fo-	.	.
!	!	!	!	!	!	!	!	!	!LO:SIC:s=-ve-	!	!
8BB-\L	.	.	8B-\L	.	2f/	4r	.	2a\	-ue-	.	.
8C\	.	.	8c\	.	.	.	.	.	.	.	.
8D\	.	.	8d\	.	.	16ff\LL	.	.	.	.	.
.	.	.	.	.	.	16dd\	.	.	.	.	.
8D\J	.	.	8d\J	.	.	16cc\	.	.	.	.	.
.	.	.	.	.	.	16b-\JJ	.	.	.	.	.
=37	=37	=37	=37	=37	=37	=37	=37	=37	=37	=37	=37
!	!	!	!	!	!	!LO:TX:a:t=P:problem:znak początku repetycji	!	!	!	!	!
8E-\L	.	.	8e-\L	.	1f	8cc\L	.	1a	.	8cc\	Fac
8F\	.	.	8f\	.	.	8dd\J	.	.	.	8dd\	me
8G\	.	.	8g\	.	.	4ee-T>\	.	.	.	4ee-\	Cru-
8A\J	.	.	8a\J	.	.	.	.	.	.	.	.
!LO:TX:a:t=P:problem:mixed beam	!	!	!	!	!	!	!	!	!	!	!
!	!	!	!	!	!	!	!	!	!	!	!LO:SIC:s=-ce
8B-\L	.	.	8b-\L	.	.	4dd\	.	.	.	4dd\	-cem
8c\	.	.	8cc\	.	.	.	.	.	.	.	.
8d\	.	.	8dd\	.	.	16ff\LL	.	.	.	4r	.
.	.	.	.	.	.	16dd\	.	.	.	.	.
8D/J	.	.	8d\J	.	.	16cc\	.	.	.	.	.
.	.	.	.	.	.	16b-\JJ	.	.	.	.	.
!	!	!	!	!	!	!LO:TX:a:t=P:problem:znak końca repetycji	!	!	!	!LO:LB:g=original	!
=38	=38	=38	=38	=38	=38	=38	=38	=38	=38	=38	=38
8E-\L	.	.	8e-\L	.	1f	8cc\L	.	1a	.	8cc\	Cus-
8F\	.	.	8f\	.	.	8dd\J	.	.	.	8dd\	-to-
8G\	.	.	8g\	.	.	4ee-T>\	.	.	.	4ee-\	-di-
8A\J	.	.	8a\J	.	.	.	.	.	.	.	.
!LO:TX:a:t=P:problem:mixed beam	!	!	!	!	!	!	!	!	!	!LO:SIC:s=-ri	!
8B-\L	.	.	8b-\L	.	.	4dd\	.	.	.	4dd\	-re
8c\	.	.	8cc\	.	.	.	.	.	.	.	.
8d\	.	.	8dd\	.	.	16ff\LL	.	.	.	4r	.
.	.	.	.	.	.	16dd\	.	.	.	.	.
8D/J	.	.	8d\J	.	.	16cc\	.	.	.	.	.
.	.	.	.	.	.	16b-\JJ	.	.	.	.	.
!	!	!	!	!	!LO:LB:g=original	!	!	!	!	!	!
=39	=39	=39	=39	=39	=39	=39	=39	=39	=39	=39	=39
8E-\L	.	.	8e-\L	.	1f	8cc\L	.	1a	.	8cc\	mor-
8F\	.	.	8f\	.	.	8dd\J	.	.	.	8dd\	-te
8G\	.	.	8g\	.	.	4ee-\	.	.	.	4ee-\	Chri-
8A\J	.	.	8a\J	.	.	.	.	.	.	.	.
!LO:TX:a:t=P:problem:mixed beam	!	!	!	!	!	!	!	!	!	!	!
8B-\L	.	.	8b-\L	.	.	4dd\	.	.	.	4dd\	-sti
8c\	.	.	8cc\	.	.	.	.	.	.	.	.
8d\	.	.	8dd\	.	.	16ff\LL	.	.	.	4r	.
.	.	.	.	.	.	16dd\	.	.	.	.	.
8D/J	.	.	8d\J	.	.	16cc\	.	.	.	.	.
.	.	.	.	.	.	16b-\JJ	.	.	.	.	.
!	!	!	!LO:LB:g=original	!	!	!LO:LB:g=original	!	!	!	!	!
=40	=40	=40	=40	=40	=40	=40	=40	=40	=40	=40	=40
8E-\L	.	.	8e-\L	.	2f/	8cc\L	.	2a\	.	8cc\	pr(a)e-
8F\	.	.	8f\	.	.	8dd\J	.	.	.	8dd\	-mu-
8G\	.	.	8g\	.	.	4ee-T>\	.	.	.	4ee-\	-ni-
8A\J	.	.	8a\J	.	.	.	.	.	.	.	.
!LO:TX:a:t=P:problem:mixed beam	!	!	!LO:TX:a:t=P:problem:mixed beam	!	!LO:TX:a:t=P:problem:mixed beam	!	!	!	!	!	!
8B-\L	.	.	8b-\L	.	8f/L	8dd\L	.	4a\	-ri	4dd\	-ri
8BB-/	.	.	8B-/	.	16dd\L	16bb-\L	.	.	.	.	.
.	.	.	.	.	16cc\JJ	16aa\JJ	.	.	.	.	.
8BB-/	.	.	8B-/	.	8dd\L	8bb-\L	.	4r	.	4r	.
8BB-/J	.	.	8B-/J	.	8dd\J	8bb-\J	.	.	.	.	.
=41	=41	=41	=41	=41	=41	=41	=41	=41	=41	=41	=41
8BB-/L	X -7	.	8B-/L	.	2d/	2a-X/	.	2f\	Con-	2a-X\	Con-
8BB-/	.	.	8B-/	.	.	.	.	.	.	.	.
8BB-/	.	.	8B-/	.	.	.	.	.	.	.	.
8BB-/J	.	.	8B-/J	.	.	.	.	.	.	.	.
8BB-/L	6 4	.	8B-/L	.	2e-/	2g/	.	2g\	-fo-	2g\	-fo-
8BB-/	.	.	8B-/	.	.	.	.	.	.	.	.
8BB-/	.	.	8B-/	.	.	.	.	.	.	.	.
8BB-/J	.	.	8B-/J	.	.	.	.	.	.	.	.
=42	=42	=42	=42	=42	=42	=42	=42	=42	=42	=42	=42
!LO:TX:a:t=P:problem:oznaczenie bc nieczytelne	!	!	!	!	!	!	!	!	!LO:SIC:s=-ve-	!	!
8BB-/L	X #7r	.	8B-/L	.	2c/	2an/	.	2e-\	-ue-	2an\	-ve-
8BB-/	.	.	8B-/	.	.	.	.	.	.	.	.
8BB-/	.	.	8B-/	.	.	.	.	.	.	.	.
8BB-/J	.	.	8B-/J	.	.	.	.	.	.	.	.
8BB-/L	X 8	.	8B-/L	.	2d/	2b-/	.	2f\	-ri	2b-\	-ri
8BB-/	.	.	8B-/	.	.	.	.	.	.	.	.
8BB-/	.	.	8B-/	.	.	.	.	.	.	.	.
8BB-/J	.	.	8B-/J	.	.	.	.	.	.	.	.
=43	=43	=43	=43	=43	=43	=43	=43	=43	=43	=43	=43
!	!	!	!	!	!LO:TX:a:t=P:problem:mixed beam	!LO:TX:a:t=P:problem:mixed beam	!	!	!	!	!
8r	.	.	8r	.	8c/L	8e-/L	.	4g\	Con-	4cc\	Con-
8FF/L	.	.	8F/L	.	16cc\L	16ee-\L	.	.	.	.	.
.	.	.	.	.	16b-\JJ	16dd\JJ	.	.	.	.	.
8GG/	.	.	8G/	.	8cc\L	8ee-\L	.	4g\	-fo-	4cc\	-fo-
8AA/J	.	.	8A/J	.	8cc\J	8ee-\J	.	.	.	.	.
!LO:LB:g=original	!	!	!	!	!	!	!	!	!	!	!
!LO:TX:a:t=P:problem:mixed beam	!	!	!LO:TX:a:t=P:problem:mixed beam	!	!	!	!	!	!LO:SIC:s=-ve-	!	!
8BB-/L	.	.	8B-/L	.	8b-\L	8dd\L	.	8f\L	-ue-	8b-\L	-ve-
8B-\	.	.	8b-\	.	16cc\L	16ee-\L	.	16g\L	.	16cc\L	.
.	.	.	.	.	16dd\JJ	16ff\JJ	.	16a\JJ	.	16dd\JJ	.
8E-\	.	.	8e-\	.	8ee-\L	8gg\L	.	8b-\	-ri	8ee-\	-ri
8E-\J	.	.	8e-\J	.	16dd\L	16ff\L	.	16a\LL	.	16dd\LL	.
.	.	.	.	.	16cc\JJ	16ee-\JJ	.	16g\JJ	.	16cc\JJ	.
=44	=44	=44	=44	=44	=44	=44	=44	=44	=44	=44	=44
8F\L	.	.	8f\L	.	4b-\	8dd\L	.	4f\	gra-	4b-\	gra-
8F\	.	.	8f\	.	.	8bb-\J	.	.	.	.	.
8F\	.	.	8f\	.	4a\	4ccT>\	.	8e-/	.	8.a\	.
8F\J	.	.	8f\J	.	.	.	.	8e-/	-ti-	.	.
.	.	.	.	.	.	.	.	.	.	16b-\	-ti-
!	!	!	!	!	!	!LO:TX:a:t=P:problem:mixed beam	!	!	!	!	!
!	!	!	!	!	!	!	!	!LO:LB:g=original	!	!	!
*tremolo	*	*	*	*	*	*	*	*	*	*	*
8BB-/L	.	.	8B-/L	.	8b-\L	8b-/L	.	4d/	-a	4b-\	-a
8BB-/	.	.	8B-/	.	16dd\L	16bb-\L	.	.	.	.	.
.	.	.	.	.	16cc\JJ	16aa\JJ	.	.	.	.	.
8BB-/	.	.	8B-/	.	8dd\L	8bb-\L	.	4r	.	4r	.
8BB-/J	.	.	8B-/J	.	8dd\J	8bb-\J	.	.	.	.	.
*Xtremolo	*	*	*	*	*	*	*	*	*	*	*
!	!	!	!	!	!	!	!	!	!	!LO:LB:g=original	!
=45	=45	=45	=45	=45	=45	=45	=45	=45	=45	=45	=45
8BB-/L	X -7	.	8B-/L	.	2d/	2a-X/	.	2f\	Con-	2a\	Con-
8BB-/	.	.	8B-/	.	.	.	.	.	.	.	.
8BB-/	.	.	8B-/	.	.	.	.	.	.	.	.
8BB-/J	.	.	8B-/J	.	.	.	.	.	.	.	.
8BB-/L	.	.	8B-/L	.	2e-/	2g/	.	2g\	-fo-	2g\	-fo-
8BB-/	6 4	.	8B-/	.	.	.	.	.	.	.	.
8BB-/	.	.	8B-/	.	.	.	.	.	.	.	.
8BB-/J	.	.	8B-/J	.	.	.	.	.	.	.	.
=46	=46	=46	=46	=46	=46	=46	=46	=46	=46	=46	=46
*tremolo	*	*	*	*	*	*	*	*	*	*	*
!	!	!	!	!	!	!	!	!	!LO:SIC:s=-ve-	!	!
8BB-/L	X #7	.	8B-/L	.	2c/	2an/	.	2e-\	-ue-	2an\	-ve-
8BB-/	.	.	8B-/	.	.	.	.	.	.	.	.
8BB-/	.	.	8B-/	.	.	.	.	.	.	.	.
8BB-/J	.	.	8B-/J	.	.	.	.	.	.	.	.
8BB-/L	X 8	.	8B-/L	.	2d/	2b-/	.	2f\	-ri	2b-\	-ri
8BB-/	.	.	8B-/	.	.	.	.	.	.	.	.
8BB-/	.	.	8B-/	.	.	.	.	.	.	.	.
8BB-/J	.	.	8B-/J	.	.	.	.	.	.	.	.
*Xtremolo	*	*	*	*	*	*	*	*	*	*	*
!	!	!	!LO:LB:g=original	!	!	!	!	!	!	!	!
=47	=47	=47	=47	=47	=47	=47	=47	=47	=47	=47	=47
!	!	!	!	!	!LO:TX:a:t=P:problem:mixed beam	!LO:TX:a:t=P:problem:mixed beam	!	!	!	!	!
8r	.	.	8r	.	8c/L	8e-/L	.	4g\	Con-	4cc\	Con-
8FF/L	.	.	8F/L	.	16cc\L	16ee-\L	.	.	.	.	.
.	.	.	.	.	16b-\JJ	16dd\JJ	.	.	.	.	.
8GG/	.	.	8G/	.	8cc\L	8ee-\L	.	4g\	-fo-	4cc\	-fo-
8AA/J	.	.	8A/J	.	8cc\J	8ee-\J	.	.	.	.	.
!LO:TX:a:t=P:problem:mixed beam	!	!	!LO:TX:a:t=P:problem:mixed beam	!	!	!	!	!	!LO:SIC:s=-ve-	!	!
8BB-/L	.	.	8B-/L	.	8b-\L	8dd\L	.	8f\L	-ue-	8b-\L	-ve-
8B-\	.	.	8b-\	.	16cc\L	16ee-\L	.	16g\L	.	16cc\L	.
.	.	.	.	.	16dd\JJ	16ff\JJ	.	16a\JJ	.	16dd\JJ	.
8E-\	.	.	8e-\	.	8ee-\L	8gg\L	.	8b-\	-ri	8ee-\	-e-
8E-\J	.	.	8e-\J	.	16dd\L	16ff\L	.	16a\LL	.	16dd\LL	-ri
.	.	.	.	.	16cc\JJ	16ee-\JJ	.	16g\JJ	.	16cc\JJ	.
=48	=48	=48	=48	=48	=48	=48	=48	=48	=48	=48	=48
8F\L	.	.	8f\L	.	8dd\L	8dd\L	.	4f\	gra-	4b-\	gra-
8F\	.	.	8f\	.	8bb-\	8bb-\	.	.	.	.	.
8F\	.	.	8f\	.	8cc\	8cc\	.	8.e-/	.	8.a\	.
8F\J	.	.	8f\J	.	8aa\J	8aa\J	.	.	.	.	.
.	.	.	.	.	.	.	.	16e-/	-ti-	16b-\	-ti-
!	!	!	!	!	!LO:TX:a:t=P:problem:mixed beam	!LO:TX:a:t=P:problem:mixed beam	!	!	!	!	!
8BB-\L	.	.	8B-\L	.	8b-/L	8b-/L	.	4d/	-a	4b-\	-a
8F\	.	.	8f\	.	16bb-\L	16bb-\L	.	.	.	.	.
.	.	.	.	.	16aa\JJ	16aa\JJ	.	.	.	.	.
8D\	.	.	8d\	.	8bb-\L	8bb-\L	.	4r	.	4r	.
8BB-\J	.	.	8c\J	.	8bb-\J	8bb-\J	.	.	.	.	.
=49	=49	=49	=49	=49	=49	=49	=49	=49	=49	=49	=49
!	!	!	!	!	!LO:TX:a:t=P:problem:mixed beam	!LO:TX:a:t=P:problem:mixed beam	!	!	!	!	!
!	!	!	!	!	!	!	!	!	!	!LO:N:vis=00	!
8BB-/L	.	.	8B-/L	.	8b-/L	8b-/L	.	1ryy	.	00r	.
8D/	.	.	8d/	.	16bb-\L	16bb-\L	.	.	.	.	.
.	.	.	.	.	16aa\JJ	16aa\JJ	.	.	.	.	.
8BB-/	.	.	8B-/	.	8bb-\L	8bb-\L	.	.	.	.	.
8AA/J	.	.	8A/J	.	8bb-\J	8bb-\J	.	.	.	.	.
!	!	!	!	!	!LO:TX:a:t=P:problem:mixed beam	!LO:TX:a:t=P:problem:mixed beam	!	!	!	!	!
8GG/L	.	.	8G/L	.	8b-/L	8b-/L	.	.	.	.	.
8BB-/	.	.	8B-/	.	16bb-\L	16bb-\L	.	.	.	.	.
.	.	.	.	.	16aa\JJ	16aa\JJ	.	.	.	.	.
8GG/	.	.	8G/	.	8bb-\L	8bb-\L	.	.	.	.	.
8FF/J	.	.	8F/J	.	8bb-\J	8bb-\J	.	.	.	.	.
=50	=50	=50	=50	=50	=50	=50	=50	=50	=50	=50	=50
!	!	!	!	!	!LO:TX:a:t=P:problem:mixed beam	!LO:TX:a:t=P:problem:mixed beam	!	!	!	!	!
8EE-/L	.	.	8E-/L	.	8g/L	8g/L	.	1ryy	.	.	.
8EE-/	.	.	8E-/	.	8ee-\J	8ee-\J	.	.	.	.	.
!	!	!	!	!	!LO:LB:g=original	!LO:LB:g=original	!	!	!	!	!
8FF/	.	.	8F/	.	16dd\LL	16dd\LL	.	.	.	.	.
.	.	.	.	.	16b-\	16b-\	.	.	.	.	.
8FF/J	.	.	8F/J	.	16cc\	16cc\	.	.	.	.	.
.	.	.	.	.	16a\JJ	16a\JJ	.	.	.	.	.
!	!	!	!	!	!LO:TX:a:t=P:problem:mixed beam	!LO:TX:a:t=P:problem:mixed beam	!	!	!	!	!
8BB-\L	.	.	8B-\L	.	8b-/L	8b-/L	.	.	.	.	.
8F\	.	.	8f\	.	16bb-\L	16bb-\L	.	.	.	.	.
.	.	.	.	.	16aa\JJ	16aa\JJ	.	.	.	.	.
8D\	.	.	8d\	.	8bb-\L	8bb-\L	.	.	.	.	.
8BB-\J	.	.	8c\J	.	8bb-\J	8bb-\J	.	.	.	.	.
=51	=51	=51	=51	=51	=51	=51	=51	=51	=51	=51	=51
!	!	!	!	!	!LO:TX:a:t=P:problem:mixed beam	!LO:TX:a:t=P:problem:mixed beam	!	!	!	!	!
8BB-/L	.	.	8B-/L	.	8b-/L	8b-/L	.	1ryy	.	.	.
8D/	.	.	8d/	.	16bb-\L	16bb-\L	.	.	.	.	.
.	.	.	.	.	16aa\JJ	16aa\JJ	.	.	.	.	.
8BB-/	.	.	8B-/	.	8bb-\L	8bb-\L	.	.	.	.	.
8AA/J	.	.	8A/J	.	8bb-\J	8bb-\J	.	.	.	.	.
!LO:LB:g=original	!	!	!	!	!LO:TX:a:t=P:problem:mixed beam	!LO:TX:a:t=P:problem:mixed beam	!	!	!	!	!
8GG/L	.	.	8G/L	.	8b-/L	8b-/L	.	.	.	.	.
8BB-/	.	.	8B-/	.	16bb-\L	16bb-\L	.	.	.	.	.
.	.	.	.	.	16aa\JJ	16aa\JJ	.	.	.	.	.
8GG/	.	.	8G/	.	8bb-\L	8bb-\L	.	.	.	.	.
8FF/J	.	.	8F/J	.	8bb-\J	8bb-\J	.	.	.	.	.
=52	=52	=52	=52	=52	=52	=52	=52	=52	=52	=52	=52
8EE-/L	.	.	8E-/L	.	8b-\L	8b-\L	.	1ryy	.	.	.
8EE-/	.	.	8E-/	.	8ee-\J	8ee-\J	.	.	.	.	.
8FF/	.	.	8F/	.	16dd\LL	16dd\LL	.	.	.	.	.
.	.	.	.	.	16b-\	16b-\	.	.	.	.	.
8FF/J	.	.	8F/J	.	16cc\	16cc\	.	.	.	.	.
.	.	.	.	.	16a\JJ	16a\JJ	.	.	.	.	.
4BB-/	.	.	4B-/	.	8b-/L	8b-/L	.	.	.	.	.
.	.	.	.	.	8f/J	8f/J	.	.	.	.	.
4r	.	.	4r	.	4B-/	4B-/	.	.	.	.	.
==	==	==	==	==	==	==	==	==	==	==	==
*-	*-	*-	*-	*-	*-	*-	*-	*-	*-	*-	*-
!!!system-decoration: [(s1,s2)][(s3,s4,s5)]s6
!!!RDF**kern: > = above
!!!RDF**kern: < = below
!!!EED: Mateusz Mrugas
!!!EST: 2020-11-30
!!!ENC:Anastazja Marusiak
!!!END:2020-06-10
